X: 25532
T: Marian McCarthy
R: strathspey
M: 4/4
K: Gmajor
|:G>A|B>AB>G E>G D2|c>B (3Ace d>B G2|g>ed>B A>G E2|(3BAG d>B A2 G>A|
B>AB>G E>G D2|c>B (3Ace d>B G2|g>ed>B A>GE>D|E>GG<A G2-:|
|:(3GB/c/d|e2 (3efg d>B G2|(3efg (3efg d>B G2|D>GB>G d>GB>G|
[1 D>G (3BAG A2- A>c|e2 (3efg d>B G2|(3efg (3efg d>BG>B|c>de>c B>cd>B|d<g (3dBG A2:|
[2 d<gd<G A2- A>B|c>Bc>e d2 (3BAG|D>GB>G A>G E2|g>ed>B A>GE<D|E<GG>A G2-||

